X: 121
T: REEL: Toss the Feathers
C: C: Trad.; S: Various
C: Set Leaders: Andrey, Anton, Mars
Z: [Unedited]; Benjamin Glauser at The Session
N: https://thesession.org/members/26966/sets/96716
R: Reel
M: 4/4
L: 1/8
Q: 1/2=100
K: Edor
|:EBBB dBBB|EBBA FEFA|BEEE B2 AB|1 defe dBAF:|2 defe dB A2||
Beed e2 de|fede fe e2|febe febe|fede feed|
Beed e2 de|fede faaf|b2 bf a2 af|egfe dBAF||

